src/ui/notification-alt.svg

<svg xmlns="http://www.w3.org/2000/svg" viewBox="0 0 16 16">
  <path d="M13 11.29 12 8.9V7a4.08 4.08 0 1 0-8.08 0v1.9L3 11.29a.6.6 0 0 0 0 .54.58.58 0 0 0 .48.25h2.46a1.1 1.1 0 0 0 0 .18 2.08 2.08 0 0 0 4.15 0 1.09 1.09 0 0 0 0-.18h2.41a.58.58 0 0 0 .48-.25.6.6 0 0 0 .02-.54Zm-5 1.89a.93.93 0 0 1-.93-.92.58.58 0 0 1 0-.18h1.82a.57.57 0 0 1 0 .18.92.92 0 0 1-.89.92ZM8 2.51a.75.75 0 1 0-.75-.75.76.76 0 0 0 .75.75Z"/>
</svg>

<svg id="e857e729-39ab-4c68-9885-096c09ca0687" data-name="Icons" xmlns="http://www.w3.org/2000/svg" viewBox="0 0 16 16"><path d="M13,11.29l-1-2.39V7A4.08,4.08,0,1,0,3.92,7V8.9L3,11.29a.6.6,0,0,0,0,.54.58.58,0,0,0,.48.25H5.94a1.1,1.1,0,0,0,0,.18,2.08,2.08,0,0,0,4.15,0,1.09,1.09,0,0,0,0-.18H12.5a.58.58,0,0,0,.48-.25A.6.6,0,0,0,13,11.29ZM8,13.18a.93.93,0,0,1-.93-.92.58.58,0,0,1,0-.18H8.89a.57.57,0,0,1,0,.18A.92.92,0,0,1,8,13.18ZM8,2.51a.75.75,0,1,0-.75-.75A.76.76,0,0,0,8,2.51Z"/></svg>
